assets/Globe with meridians/Flat/globe_with_meridians_flat.svg

<svg width="32" height="32" viewBox="0 0 32 32" fill="none" xmlns="http://www.w3.org/2000/svg">
<path d="M2 16C2 8.28 8.28 2 16 2C23.72 2 30 8.28 30 16C30 23.72 23.72 30 16 30C8.28 30 2 23.72 2 16ZM4.04121 15H8.03076C8.13807 13.2596 8.52434 11.5753 9.1599 10H5.60892C4.74358 11.4936 4.191 13.1903 4.04121 15ZM10.0353 15H15V10H11.3456C10.6097 11.5521 10.1595 13.2429 10.0353 15ZM15 17H10.0353C10.1595 18.7571 10.6097 20.4479 11.3456 22H15V17ZM15 24H12.506C13.2065 25.0055 14.0427 25.9242 15 26.73V24ZM19.0053 27.6195C21.3304 27.0184 23.3836 25.7366 24.9392 24H21.8647C21.0976 25.3284 20.1372 26.548 19.0053 27.6195ZM22.8399 22H26.39V22.0019C27.256 20.5078 27.8089 18.8105 27.9588 17H23.9692C23.8619 18.7406 23.4756 20.4251 22.8399 22ZM21.9647 17H17V22H20.6544C21.3903 20.4479 21.8405 18.7571 21.9647 17ZM23.9692 15H27.9588C27.8089 13.1895 27.256 11.4922 26.39 9.99813V10H22.8401C23.4757 11.5753 23.8619 13.2596 23.9692 15ZM20.6544 10H17V15H21.9647C21.8405 13.2429 21.3903 11.5521 20.6544 10ZM21.8655 8H24.9392C23.3853 6.26532 21.3348 4.98441 19.0129 4.38249C20.1418 5.45442 21.0999 6.67328 21.8655 8ZM17 5.27004V8H19.494C18.7934 6.99455 17.9573 6.07585 17 5.27004ZM15 5.27001C14.0427 6.07583 13.2065 6.99454 12.506 8H15V5.27001ZM17 24V26.73C17.9573 25.9242 18.7935 25.0055 19.494 24H17ZM5.60892 22H9.16297C8.52579 20.4243 8.1385 18.7398 8.03086 17H4.04121C4.191 18.8097 4.74358 20.5064 5.60892 22ZM13.0014 27.6212C11.8688 26.5485 10.9075 25.3282 10.1396 24H7.0608C8.61787 25.7382 10.6736 27.0208 13.0014 27.6212ZM10.1345 8C10.9 6.67329 11.8581 5.45443 12.987 4.3825C10.6651 4.98443 8.61466 6.26533 7.0608 8H10.1345Z" fill="#83CBFF"/>
</svg>

<svg xmlns="http://www.w3.org/2000/svg" width="32" height="32" fill="none"><path fill="#83CBFF" d="M2 16C2 8.28 8.28 2 16 2s14 6.28 14 14-6.28 14-14 14S2 23.72 2 16Zm2.041-1h3.99a15.98 15.98 0 0 1 1.129-5H5.609a11.918 11.918 0 0 0-1.568 5Zm5.994 0H15v-5h-3.654a13.956 13.956 0 0 0-1.31 5ZM15 17h-4.965a13.956 13.956 0 0 0 1.31 5H15v-5Zm0 7h-2.494A14.115 14.115 0 0 0 15 26.73V24Zm4.005 3.62A12.01 12.01 0 0 0 24.94 24h-3.074a16.003 16.003 0 0 1-2.86 3.62ZM22.84 22h3.55v.002A11.918 11.918 0 0 0 27.959 17h-3.99a15.972 15.972 0 0 1-1.13 5Zm-.875-5H17v5h3.654a13.956 13.956 0 0 0 1.31-5Zm2.004-2h3.99a11.918 11.918 0 0 0-1.569-5.002V10h-3.55a15.978 15.978 0 0 1 1.13 5Zm-3.315-5H17v5h4.965a13.956 13.956 0 0 0-1.31-5Zm1.212-2h3.073a12.01 12.01 0 0 0-5.926-3.618A16.051 16.051 0 0 1 21.865 8ZM17 5.27V8h2.494A14.12 14.12 0 0 0 17 5.27Zm-2 0A14.116 14.116 0 0 0 12.506 8H15V5.27ZM17 24v2.73A14.115 14.115 0 0 0 19.494 24H17ZM5.609 22h3.554a15.953 15.953 0 0 1-1.132-5H4.04c.15 1.81.703 3.506 1.568 5ZM13 27.621A16.056 16.056 0 0 1 10.14 24H7.06a12.01 12.01 0 0 0 5.941 3.621ZM10.134 8a16.048 16.048 0 0 1 2.853-3.617A12.01 12.01 0 0 0 7.061 8h3.073Z"/></svg>
